bicons/scalable/emblems/task.svg

<?xml version="1.0" encoding="UTF-8" standalone="no"?>
<!-- Created with Inkscape (http://www.inkscape.org/) -->
<svg xmlns:dc="http://purl.org/dc/elements/1.1/" xmlns:cc="http://creativecommons.org/ns#" xmlns:rdf="http://www.w3.org/1999/02/22-rdf-syntax-ns#" xmlns:svg="http://www.w3.org/2000/svg" xmlns="http://www.w3.org/2000/svg" xmlns:xlink="http://www.w3.org/1999/xlink" xmlns:sodipodi="http://sodipodi.sourceforge.net/DTD/sodipodi-0.dtd" xmlns:inkscape="http://www.inkscape.org/namespaces/inkscape" width="210mm" height="297mm" viewBox="0 0 744.09448819 1052.3622047" id="svg2" version="1.1" inkscape:version="0.91 r13725" inkscape:export-xdpi="4" inkscape:export-ydpi="4">
  <defs id="defs4">
    <linearGradient inkscape:collect="always" id="linearGradient4171">
      <stop style="stop-color:#5a6578;stop-opacity:1;" offset="0" id="stop4173"/>
      <stop style="stop-color:#9397a2;stop-opacity:1" offset="1" id="stop4175"/>
    </linearGradient>
    <linearGradient id="linearGradient2224">
      <stop id="stop2226" offset="0" style="stop-color:#7c7c7c;stop-opacity:1;"/>
      <stop id="stop2228" offset="1" style="stop-color:#b8b8b8;stop-opacity:1;"/>
    </linearGradient>
    <linearGradient id="linearGradient15218">
      <stop id="stop15220" offset="0" style="stop-color:#eeeeef;stop-opacity:1;"/>
      <stop id="stop2736" offset="0.59928656" style="stop-color:#d3d7cf;stop-opacity:1;"/>
      <stop id="stop2738" offset="0.82758623" style="stop-color:#ffffff;stop-opacity:1;"/>
      <stop id="stop15222" offset="1" style="stop-color:#d3d7cf;stop-opacity:1;"/>
    </linearGradient>
    <pattern y="0" x="0" height="6" width="6" patternUnits="userSpaceOnUse" id="EMFhbasepattern"/>
    <pattern y="0" x="0" height="6" width="6" patternUnits="userSpaceOnUse" id="EMFhbasepattern-5"/>
    <linearGradient inkscape:collect="always" xlink:href="#linearGradient4171" id="linearGradient4177" x1="290" y1="674.36218" x2="510" y2="376.36221" gradientUnits="userSpaceOnUse"/>
  </defs>
  <sodipodi:namedview id="base" pagecolor="#ffffff" bordercolor="#666666" borderopacity="1.0" inkscape:pageopacity="0.0" inkscape:pageshadow="2" inkscape:zoom="1" inkscape:cx="312.81801" inkscape:cy="499.62834" inkscape:document-units="px" inkscape:current-layer="layer1" showgrid="false" showguides="true" inkscape:guide-bbox="true" inkscape:window-width="1366" inkscape:window-height="721" inkscape:window-x="-4" inkscape:window-y="-4" inkscape:window-maximized="1">
    <sodipodi:guide position="560,730.00002" orientation="0,1" id="guide3338"/>
    <sodipodi:guide position="560,330.00001" orientation="0,1" id="guide3340"/>
    <sodipodi:guide position="190,475.00001" orientation="1,0" id="guide3344"/>
    <sodipodi:guide position="590,451.00001" orientation="1,0" id="guide3346"/>
    <inkscape:grid type="xygrid" id="grid3440"/>
    <sodipodi:guide position="-111.01577,704.98548" orientation="0,1" id="guide4151"/>
    <sodipodi:guide position="54.25,355.00001" orientation="0,1" id="guide4153"/>
    <sodipodi:guide position="215,442.00001" orientation="1,0" id="guide4155"/>
    <sodipodi:guide position="564.97832,467.39759" orientation="1,0" id="guide4157"/>
  </sodipodi:namedview>
  <metadata id="metadata7">
    <rdf:RDF>
      <cc:Work rdf:about="">
        <dc:format>image/svg+xml</dc:format>
        <dc:type rdf:resource="http://purl.org/dc/dcmitype/StillImage"/>
      </cc:Work>
    </rdf:RDF>
  </metadata>
  <g inkscape:label="Ebene 1" inkscape:groupmode="layer" id="layer1">
    <rect style="opacity:1;fill:none;fill-opacity:1;stroke:none;stroke-width:23;stroke-linecap:butt;stroke-linejoin:round;stroke-miterlimit:4;stroke-dasharray:none;stroke-opacity:1" id="rect4160" width="400" height="400" x="190" y="322.36221"/>
    <g id="g4163" transform="matrix(1.1433078,0,0,1.1428571,-55.689933,-74.623047)">
      <path id="rect4155" d="m 360.22266,347.36133 c -10.7722,0 -19.44532,8.67311 -19.44532,19.44531 l 0,19.44531 -58.33203,0 C 271.67311,386.25195 263,394.9231 263,405.69531 l 0,272.22266 c 0,10.7722 8.67311,19.44336 19.44531,19.44336 l 213.88867,0 c 10.7722,0 19.44336,-8.67116 19.44336,-19.44336 l 0,-272.22266 c 0,-10.77221 -8.67116,-19.44336 -19.44336,-19.44336 l -58.33398,0 0,-19.44531 c 0,-10.7722 -8.67311,-19.44531 -19.44531,-19.44531 l -58.33203,0 z" style="color:#000000;clip-rule:nonzero;display:inline;overflow:visible;visibility:visible;opacity:1;isolation:auto;mix-blend-mode:normal;color-interpolation:sRGB;color-interpolation-filters:linearRGB;solid-color:#000000;solid-opacity:1;fill:url(#linearGradient4177);fill-opacity:1;fill-rule:nonzero;stroke:none;stroke-width:3.9000001;stroke-linecap:butt;stroke-linejoin:round;stroke-miterlimit:4;stroke-dasharray:none;stroke-dashoffset:60.95968628;stroke-opacity:1;color-rendering:auto;image-rendering:auto;shape-rendering:auto;text-rendering:auto;enable-background:accumulate" inkscape:connector-curvature="0"/>
      <path sodipodi:nodetypes="ccccc" inkscape:connector-curvature="0" id="path4159" d="m 445.13125,453.74956 13.552,18.06937 31.62141,-49.69079 -31.90374,40.79725 z" style="fill:#ffffff;fill-rule:evenodd;stroke:#ffffff;stroke-width:15;stroke-linecap:butt;stroke-linejoin:round;stroke-miterlimit:4;stroke-dasharray:none;stroke-opacity:1"/>
      <rect ry="18.724663" y="431.65338" x="290.22226" height="37.449326" width="137.2191" id="rect4161" style="color:#000000;clip-rule:nonzero;display:inline;overflow:visible;visibility:visible;opacity:1;isolation:auto;mix-blend-mode:normal;color-interpolation:sRGB;color-interpolation-filters:linearRGB;solid-color:#000000;solid-opacity:1;fill:#ffffff;fill-opacity:1;fill-rule:nonzero;stroke:none;stroke-width:3.9000001;stroke-linecap:butt;stroke-linejoin:round;stroke-miterlimit:4;stroke-dasharray:none;stroke-dashoffset:60.95968628;stroke-opacity:1;color-rendering:auto;image-rendering:auto;shape-rendering:auto;text-rendering:auto;enable-background:accumulate"/>
      <rect style="color:#000000;clip-rule:nonzero;display:inline;overflow:visible;visibility:visible;opacity:1;isolation:auto;mix-blend-mode:normal;color-interpolation:sRGB;color-interpolation-filters:linearRGB;solid-color:#000000;solid-opacity:1;fill:#ffffff;fill-opacity:1;fill-rule:nonzero;stroke:none;stroke-width:3.9000001;stroke-linecap:butt;stroke-linejoin:round;stroke-miterlimit:4;stroke-dasharray:none;stroke-dashoffset:60.95968628;stroke-opacity:1;color-rendering:auto;image-rendering:auto;shape-rendering:auto;text-rendering:auto;enable-background:accumulate" id="rect4165" width="137.2191" height="37.449326" x="290.22226" y="506.55212" ry="18.724663"/>
      <rect ry="18.724663" y="588.94073" x="290.22226" height="37.449326" width="137.2191" id="rect4169" style="color:#000000;clip-rule:nonzero;display:inline;overflow:visible;visibility:visible;opacity:1;isolation:auto;mix-blend-mode:normal;color-interpolation:sRGB;color-interpolation-filters:linearRGB;solid-color:#000000;solid-opacity:1;fill:#ffffff;fill-opacity:1;fill-rule:nonzero;stroke:none;stroke-width:3.9000001;stroke-linecap:butt;stroke-linejoin:round;stroke-miterlimit:4;stroke-dasharray:none;stroke-dashoffset:60.95968628;stroke-opacity:1;color-rendering:auto;image-rendering:auto;shape-rendering:auto;text-rendering:auto;enable-background:accumulate"/>
      <path style="fill:#ffffff;fill-rule:evenodd;stroke:#ffffff;stroke-width:15;stroke-linecap:butt;stroke-linejoin:round;stroke-miterlimit:4;stroke-dasharray:none;stroke-opacity:1" d="m 445.13125,523.74956 13.552,18.06937 31.62141,-49.69079 -31.90374,40.79725 z" id="path4183" inkscape:connector-curvature="0" sodipodi:nodetypes="ccccc"/>
    </g>
  </g>
</svg>

<?xml version="1.0" encoding="UTF-8" standalone="no"?>
<!-- Created with Inkscape (http://www.inkscape.org/) -->

<svg
   xmlns:dc="http://purl.org/dc/elements/1.1/"
   xmlns:cc="http://creativecommons.org/ns#"
   xmlns:rdf="http://www.w3.org/1999/02/22-rdf-syntax-ns#"
   xmlns:svg="http://www.w3.org/2000/svg"
   xmlns="http://www.w3.org/2000/svg"
   xmlns:xlink="http://www.w3.org/1999/xlink"
   xmlns:sodipodi="http://sodipodi.sourceforge.net/DTD/sodipodi-0.dtd"
   xmlns:inkscape="http://www.inkscape.org/namespaces/inkscape"
   width="210mm"
   height="297mm"
   viewBox="0 0 744.09448819 1052.3622047"
   id="svg2"
   version="1.1"
   inkscape:version="0.91 r13725"
   sodipodi:docname="task.svg"
   inkscape:export-filename="C:\Users\johannes\Documents\Arbeit\RRZE\bi-con\bi-con\scalable\documents\document.png"
   inkscape:export-xdpi="4"
   inkscape:export-ydpi="4">
  <defs
     id="defs4">
    <linearGradient
       inkscape:collect="always"
       id="linearGradient4171">
      <stop
         style="stop-color:#5a6578;stop-opacity:1;"
         offset="0"
         id="stop4173" />
      <stop
         style="stop-color:#9397a2;stop-opacity:1"
         offset="1"
         id="stop4175" />
    </linearGradient>
    <linearGradient
       id="linearGradient2224">
      <stop
         id="stop2226"
         offset="0"
         style="stop-color:#7c7c7c;stop-opacity:1;" />
      <stop
         id="stop2228"
         offset="1"
         style="stop-color:#b8b8b8;stop-opacity:1;" />
    </linearGradient>
    <linearGradient
       id="linearGradient15218">
      <stop
         id="stop15220"
         offset="0"
         style="stop-color:#eeeeef;stop-opacity:1;" />
      <stop
         id="stop2736"
         offset="0.59928656"
         style="stop-color:#d3d7cf;stop-opacity:1;" />
      <stop
         id="stop2738"
         offset="0.82758623"
         style="stop-color:#ffffff;stop-opacity:1;" />
      <stop
         id="stop15222"
         offset="1"
         style="stop-color:#d3d7cf;stop-opacity:1;" />
    </linearGradient>
    <pattern
       y="0"
       x="0"
       height="6"
       width="6"
       patternUnits="userSpaceOnUse"
       id="EMFhbasepattern" />
    <pattern
       y="0"
       x="0"
       height="6"
       width="6"
       patternUnits="userSpaceOnUse"
       id="EMFhbasepattern-5" />
    <linearGradient
       inkscape:collect="always"
       xlink:href="#linearGradient4171"
       id="linearGradient4177"
       x1="290"
       y1="674.36218"
       x2="510"
       y2="376.36221"
       gradientUnits="userSpaceOnUse" />
  </defs>
  <sodipodi:namedview
     id="base"
     pagecolor="#ffffff"
     bordercolor="#666666"
     borderopacity="1.0"
     inkscape:pageopacity="0.0"
     inkscape:pageshadow="2"
     inkscape:zoom="1"
     inkscape:cx="268.31801"
     inkscape:cy="539.62834"
     inkscape:document-units="px"
     inkscape:current-layer="layer1"
     showgrid="false"
     showguides="true"
     inkscape:guide-bbox="true"
     inkscape:window-width="1366"
     inkscape:window-height="721"
     inkscape:window-x="-4"
     inkscape:window-y="-4"
     inkscape:window-maximized="1">
    <sodipodi:guide
       position="560,730.00002"
       orientation="0,1"
       id="guide3338" />
    <sodipodi:guide
       position="560,330.00001"
       orientation="0,1"
       id="guide3340" />
    <sodipodi:guide
       position="190,475.00001"
       orientation="1,0"
       id="guide3344" />
    <sodipodi:guide
       position="590,451.00001"
       orientation="1,0"
       id="guide3346" />
    <inkscape:grid
       type="xygrid"
       id="grid3440" />
    <sodipodi:guide
       position="-111.01577,704.98548"
       orientation="0,1"
       id="guide4151" />
    <sodipodi:guide
       position="54.25,355.00001"
       orientation="0,1"
       id="guide4153" />
    <sodipodi:guide
       position="215,442.00001"
       orientation="1,0"
       id="guide4155" />
    <sodipodi:guide
       position="564.97832,467.39759"
       orientation="1,0"
       id="guide4157" />
  </sodipodi:namedview>
  <metadata
     id="metadata7">
    <rdf:RDF>
      <cc:Work
         rdf:about="">
        <dc:format>image/svg+xml</dc:format>
        <dc:type
           rdf:resource="http://purl.org/dc/dcmitype/StillImage" />
      </cc:Work>
    </rdf:RDF>
  </metadata>
  <g
     inkscape:label="Ebene 1"
     inkscape:groupmode="layer"
     id="layer1">
    <rect
       style="opacity:1;fill:none;fill-opacity:1;stroke:none;stroke-width:23;stroke-linecap:butt;stroke-linejoin:round;stroke-miterlimit:4;stroke-dasharray:none;stroke-opacity:1"
       id="rect4160"
       width="400"
       height="400"
       x="190"
       y="322.36221" />
    <path
       style="color:#000000;clip-rule:nonzero;display:inline;overflow:visible;visibility:visible;opacity:1;isolation:auto;mix-blend-mode:normal;color-interpolation:sRGB;color-interpolation-filters:linearRGB;solid-color:#000000;solid-opacity:1;fill:url(#linearGradient4177);fill-opacity:1;fill-rule:nonzero;stroke:none;stroke-width:3.9000001;stroke-linecap:butt;stroke-linejoin:round;stroke-miterlimit:4;stroke-dasharray:none;stroke-dashoffset:60.95968628;stroke-opacity:1;color-rendering:auto;image-rendering:auto;shape-rendering:auto;text-rendering:auto;enable-background:accumulate"
       d="M 360.22266 347.36133 C 349.45046 347.36133 340.77734 356.03444 340.77734 366.80664 L 340.77734 386.25195 L 282.44531 386.25195 C 271.67311 386.25195 263 394.9231 263 405.69531 L 263 677.91797 C 263 688.69017 271.67311 697.36133 282.44531 697.36133 L 496.33398 697.36133 C 507.10618 697.36133 515.77734 688.69017 515.77734 677.91797 L 515.77734 405.69531 C 515.77734 394.9231 507.10618 386.25195 496.33398 386.25195 L 438 386.25195 L 438 366.80664 C 438 356.03444 429.32689 347.36133 418.55469 347.36133 L 360.22266 347.36133 z "
       id="rect4155" />
    <path
       style="fill:#ffffff;fill-rule:evenodd;stroke:#ffffff;stroke-width:30;stroke-linecap:butt;stroke-linejoin:round;stroke-miterlimit:4;stroke-dasharray:none;stroke-opacity:1"
       d="m 445.13125,453.74956 13.552,18.06937 31.62141,-49.69079 -31.90374,40.79725 z"
       id="path4159"
       inkscape:connector-curvature="0"
       sodipodi:nodetypes="ccccc" />
    <rect
       style="color:#000000;clip-rule:nonzero;display:inline;overflow:visible;visibility:visible;opacity:1;isolation:auto;mix-blend-mode:normal;color-interpolation:sRGB;color-interpolation-filters:linearRGB;solid-color:#000000;solid-opacity:1;fill:#ffffff;fill-opacity:1;fill-rule:nonzero;stroke:none;stroke-width:3.9000001;stroke-linecap:butt;stroke-linejoin:round;stroke-miterlimit:4;stroke-dasharray:none;stroke-dashoffset:60.95968628;stroke-opacity:1;color-rendering:auto;image-rendering:auto;shape-rendering:auto;text-rendering:auto;enable-background:accumulate"
       id="rect4161"
       width="137.2191"
       height="37.449326"
       x="290.22226"
       y="431.65338"
       ry="18.724663" />
    <rect
       ry="18.724663"
       y="506.55212"
       x="290.22226"
       height="37.449326"
       width="137.2191"
       id="rect4165"
       style="color:#000000;clip-rule:nonzero;display:inline;overflow:visible;visibility:visible;opacity:1;isolation:auto;mix-blend-mode:normal;color-interpolation:sRGB;color-interpolation-filters:linearRGB;solid-color:#000000;solid-opacity:1;fill:#ffffff;fill-opacity:1;fill-rule:nonzero;stroke:none;stroke-width:3.9000001;stroke-linecap:butt;stroke-linejoin:round;stroke-miterlimit:4;stroke-dasharray:none;stroke-dashoffset:60.95968628;stroke-opacity:1;color-rendering:auto;image-rendering:auto;shape-rendering:auto;text-rendering:auto;enable-background:accumulate" />
    <rect
       style="color:#000000;clip-rule:nonzero;display:inline;overflow:visible;visibility:visible;opacity:1;isolation:auto;mix-blend-mode:normal;color-interpolation:sRGB;color-interpolation-filters:linearRGB;solid-color:#000000;solid-opacity:1;fill:#ffffff;fill-opacity:1;fill-rule:nonzero;stroke:none;stroke-width:3.9000001;stroke-linecap:butt;stroke-linejoin:round;stroke-miterlimit:4;stroke-dasharray:none;stroke-dashoffset:60.95968628;stroke-opacity:1;color-rendering:auto;image-rendering:auto;shape-rendering:auto;text-rendering:auto;enable-background:accumulate"
       id="rect4169"
       width="137.2191"
       height="37.449326"
       x="290.22226"
       y="588.94073"
       ry="18.724663" />
    <path
       sodipodi:nodetypes="ccccc"
       inkscape:connector-curvature="0"
       id="path4183"
       d="m 445.13125,523.74956 13.552,18.06937 31.62141,-49.69079 -31.90374,40.79725 z"
       style="fill:#ffffff;fill-rule:evenodd;stroke:#ffffff;stroke-width:30;stroke-linecap:butt;stroke-linejoin:round;stroke-miterlimit:4;stroke-dasharray:none;stroke-opacity:1" />
  </g>
</svg>
